epam-assets/icon-sources/18/editor-chart-bar_vert.svg

<svg xmlns="http://www.w3.org/2000/svg" width="18" height="18" fill="none" viewBox="0 0 18 18">
  <path fill="#6C6F80" fill-rule="evenodd" d="M16.5 15.75h-15V2.25H3v12h1.5V7.5h3v6.75H9V4.5h3v9.75h1.5V10.5h3v5.25Z" clip-rule="evenodd"/>
</svg>

<svg width="18" height="18" viewBox="0 0 18 18" fill="none" xmlns="http://www.w3.org/2000/svg">
<g id="18/editor-chart-bar_vert">
<path id="icon" fill-rule="evenodd" clip-rule="evenodd" d="M16.5 15.75H1.5V2.25H3V14.25H4.5V7.5H7.5V14.25H9V4.5H12V14.25H13.5V10.5H16.5V15.75Z" fill="#6C6F80"/>
</g>
</svg>
